; generated by PrusaSlicer 2.5.0+MacOS-arm64 on 2022-12-05 at 05:28:56 UTC


;
;
; 

; external perimeters extrusion width = 0.45mm
; perimeters extrusion width = 0.45mm
; infill extrusion width = 0.45mm
; solid infill extrusion width = 0.45mm
; top infill extrusion width = 0.40mm
; first layer extrusion width = 0.42mm

M73 P0 R9
M73 Q0 S9
M201 X1000 Y1000 Z200 E5000 ; sets maximum accelerations, mm/sec^2
M203 X200 Y200 Z12 E120 ; sets maximum feedrates, mm / sec
M204 P1250 R1250 T1250 ; sets acceleration (P, T) and retract acceleration (R), mm/sec^2
M205 X8.00 Y8.00 Z0.40 E4.50 ; sets the jerk limits, mm/sec
M205 S0 T0 ; sets the minimum extruding and travel feed rate, mm/sec
M107
;TYPE:Custom
M862.3 P "MK3S" ; printer model check
M862.1 P0.4 ; nozzle diameter check
M115 U3.11.0 ; tell printer latest fw version
G90 ; use absolute coordinates
M83 ; extruder relative mode
; Start custom bed leveling
M104 S160 ; set extruder temp before bed leveling
M140 S60 ; set bed temp before bed leveling
M190 S60 ; wait for bed temp before bed leveling
M109 S160 ; wait for extruder temp before bed leveling
; End custom bed leveling
G28 W ; home all without mesh bed level
G80 ; mesh bed leveling

M109 S215 ; wait for extruder temp
G1 Z0.2 F720
G1 Y-3 F1000 ; go outside print area
G92 E0
G1 X60 E9 F1000 ; intro line
G1 X100 E12.5 F1000 ; intro line

G92 E0
M221 S95

; Don't change E values below. Excessive value can damage the printer.
M907 E430 ; set extruder motor current
G21 ; set units to millimeters
G90 ; use absolute coordinates
M83 ; use relative distances for extrusion
M900 K0.05 ; Filament gcode LA 1.5
M900 K30 ; Filament gcode LA 1.0
M107
;LAYER_CHANGE
;Z:0.2
;HEIGHT:0.2
;BEFORE_LAYER_CHANGE
G92 E0.0
;0.2


G1 Z.2 F720
;AFTER_LAYER_CHANGE
;0.2
M73 P1 R9
M73 Q1 S9
G1 E-.8 F2100
G1 Z.6 F720
G1 X111.87 Y92.176 F10800
G1 Z.2 F720
G1 E.8 F2100
M204 S800
;TYPE:Skirt/Brim
;WIDTH:0.42
G1 F1200
G1 X113.122 Y91.107 E.05162
G1 X113.791 Y90.697 E.0246
G1 X114.901 Y90.2 E.03812
G1 X116.502 Y89.816 E.05162
G1 X117.494 Y89.746 E.03118
G1 X132.716 Y89.754 E.47729
G1 X133.925 Y89.883 E.03812
G1 X135.099 Y90.2 E.03813
G1 X136.209 Y90.697 E.03812
G1 X137.242 Y91.373 E.03871
G1 X138.13 Y92.176 E.03754
G1 X138.639 Y92.772 E.0246
G1 X139.303 Y93.791 E.03812
G1 X139.8 Y94.901 E.03812
G1 X140.117 Y96.075 E.03812
G1 X140.254 Y97.494 E.04469
G1 X140.246 Y112.716 E.47729
G1 X140.117 Y113.925 E.03812
G1 X139.933 Y114.688 E.0246
G1 X139.5 Y115.824 E.03812
G1 X138.893 Y116.878 E.03812
G1 X137.824 Y118.13 E.05162
G1 X137.228 Y118.639 E.0246
G1 X136.209 Y119.303 E.03812
G1 X134.688 Y119.933 E.05162
G1 X133.498 Y120.184 E.03812
G1 X132.716 Y120.246 E.0246
G1 X117.284 Y120.246 E.48386
G1 X116.075 Y120.117 E.03812
M73 Q2 S9
G1 X115.312 Y119.933 E.0246
G1 X114.176 Y119.5 E.03812
G1 X113.122 Y118.893 E.03812
G1 X111.87 Y117.824 E.05162
G1 X111.361 Y117.228 E.0246
M73 P2 R9
G1 X110.697 Y116.209 E.03812
G1 X110.067 Y114.688 E.05162
G1 X109.883 Y113.925 E.0246
G1 X109.755 Y112.722 E.03793
G1 X109.754 Y97.284 E.48406
G1 X109.883 Y96.075 E.03812
G1 X110.067 Y95.312 E.0246
G1 X110.5 Y94.176 E.03812
G1 X111.107 Y93.122 E.03812
G1 X111.833 Y92.222 E.03624
M204 S1000
G1 X112.125 Y92.46 F10800
M204 S800
G1 F1200
G1 X113.319 Y91.428 E.04948
G1 X113.988 Y91.018 E.0246
G1 X115.045 Y90.549 E.03627
G1 X116.531 Y90.192 E.04792
G1 X117.494 Y90.123 E.03025
G1 X132.686 Y90.13 E.47636
G1 X133.837 Y90.25 E.03627
G1 X134.955 Y90.549 E.03627
G1 X136.012 Y91.018 E.03627
G1 X136.997 Y91.66 E.03686
G1 X137.843 Y92.421 E.03568
G1 X138.353 Y93.017 E.0246
G1 X138.982 Y93.988 E.03627
G1 X139.451 Y95.045 E.03627
G1 X139.75 Y96.163 E.03627
G1 X139.877 Y97.494 E.04191
G1 X139.87 Y112.686 E.47636
G1 X139.75 Y113.837 E.03627
G1 X139.567 Y114.6 E.0246
G1 X139.151 Y115.68 E.03627
G1 X138.572 Y116.681 E.03627
G1 X137.579 Y117.843 E.04792
G1 X136.983 Y118.353 E.0246
G1 X136.012 Y118.982 E.03627
G1 X134.6 Y119.567 E.04792
G1 X133.837 Y119.75 E.0246
G1 X132.693 Y119.869 E.03607
G1 X117.314 Y119.87 E.48221
G1 X116.163 Y119.75 E.03627
G1 X115.4 Y119.567 E.0246
G1 X114.32 Y119.151 E.03627
G1 X113.319 Y118.572 E.03627
G1 X112.157 Y117.579 E.04792
M73 Q3 S9
G1 X111.647 Y116.983 E.0246
G1 X111.018 Y116.012 E.03627
G1 X110.433 Y114.6 E.04792
G1 X110.25 Y113.837 E.0246
G1 X110.131 Y112.693 E.03607
M73 P3 R9
G1 X110.13 Y97.314 E.48221
G1 X110.25 Y96.163 E.03627
G1 X110.433 Y95.4 E.0246
G1 X110.849 Y94.32 E.03627
G1 X111.428 Y93.319 E.03627
G1 X112.087 Y92.506 E.03281
M204 S1000
; printing object perimeter_calibration_cube id:0 copy 0
;WIPE_START
G1 F8640
G1 X113.319 Y91.428 E-.378
G1 X113.988 Y91.018 E-.18116
G1 X114.783 Y90.665 E-.20084
;WIPE_END
G1 E-.04 F2100
G1 Z.6 F720
G1 X114.205 Y94.315 F10800
G1 Z.2 F720
G1 E.8 F2100
M204 S800
;TYPE:External perimeter
;WIDTH:0.419999
G1 F1200
G1 X114.803 Y93.788 E.025
G1 X115.417 Y93.411 E.02258
G1 X116.082 Y93.136 E.02258
G1 X116.782 Y92.968 E.02258
G1 X117.516 Y92.91 E.02308
G1 X132.484 Y92.91 E.4693
G1 X133.218 Y92.968 E.02308
G1 X133.918 Y93.136 E.02258
G1 X134.583 Y93.411 E.02258
G1 X135.197 Y93.788 E.02258
G1 X135.745 Y94.255 E.02258
G1 X136.212 Y94.803 E.02258
G1 X136.589 Y95.417 E.02258
G1 X136.864 Y96.082 E.02258
G1 X137.032 Y96.782 E.02258
G1 X137.09 Y97.516 E.02308
G1 X137.09 Y112.484 E.4693
G1 X137.032 Y113.218 E.02308
G1 X136.864 Y113.918 E.02258
G1 X136.589 Y114.583 E.02258
G1 X136.212 Y115.197 E.02258
G1 X135.745 Y115.745 E.02258
G1 X135.197 Y116.212 E.02258
G1 X134.583 Y116.589 E.02258
G1 X133.918 Y116.864 E.02258
G1 X133.218 Y117.032 E.02258
G1 X132.484 Y117.09 E.02308
G1 X117.516 Y117.09 E.4693
G1 X116.782 Y117.032 E.02308
G1 X116.082 Y116.864 E.02258
G1 X115.417 Y116.589 E.02258
G1 X114.803 Y116.212 E.02258
G1 X114.255 Y115.745 E.02258
G1 X113.788 Y115.197 E.02258
G1 X113.411 Y114.583 E.02258
G1 X113.136 Y113.918 E.02258
G1 X112.968 Y113.218 E.02258
G1 X112.91 Y112.484 E.02308
G1 X112.91 Y97.516 E.4693
G1 X112.968 Y96.782 E.02308
M73 P4 R8
M73 Q4 S8
G1 X113.136 Y96.082 E.02258
G1 X113.411 Y95.417 E.02258
G1 X113.788 Y94.803 E.02258
G1 X114.166 Y94.36 E.01824
M204 S1000
;WIPE_START
G1 F8640
G1 X114.803 Y93.788 E-.19783
G1 X115.417 Y93.411 E-.16626
G1 X116.082 Y93.136 E-.16626
G1 X116.782 Y92.968 E-.16627
G1 X117.056 Y92.946 E-.06338
;WIPE_END
G1 E-.04 F2100
G1 Z.6 F720
G1 X133.772 Y93.217 F10800
G1 Z.2 F720
G1 E.8 F2100
M204 S800
;TYPE:Solid infill
;WIDTH:0.420439
G1 F1200
G1 X136.502 Y95.948 E.12121
G1 X136.594 Y96.17 E.00755
G1 X136.722 Y96.701 E.01715
G1 X133.299 Y93.278 E.15195
G1 X133.173 Y93.248 E.00405
G1 X132.698 Y93.21 E.01499
G1 X136.79 Y97.302 E.18166
G1 X136.807 Y97.854 E.01732
G1 X132.146 Y93.193 E.20693
G1 X131.612 Y93.193 E.01676
G1 X136.807 Y98.388 E.23063
G1 X136.807 Y98.922 E.01676
G1 X131.078 Y93.193 E.25433
G1 X130.544 Y93.193 E.01676
G1 X136.807 Y99.456 E.27803
G1 X136.807 Y99.99 E.01676
G1 X130.01 Y93.193 E.30173
G1 X129.476 Y93.193 E.01676
G1 X136.807 Y100.524 E.32544
G1 X136.807 Y101.057 E.01676
G1 X128.943 Y93.193 E.34914
G1 X128.409 Y93.193 E.01676
G1 X136.807 Y101.591 E.37284
G1 X136.807 Y102.125 E.01676
M73 P5 R8
M73 Q5 S8
G1 X127.875 Y93.193 E.39654
G1 X127.341 Y93.193 E.01676
G1 X136.807 Y102.659 E.42024
G1 X136.807 Y103.193 E.01676
G1 X126.807 Y93.193 E.44394
G1 X126.273 Y93.193 E.01676
G1 X136.807 Y103.727 E.46764
G1 X136.807 Y104.261 E.01676
G1 X125.739 Y93.193 E.49134
G1 X125.205 Y93.193 E.01676
G1 X136.807 Y104.795 E.51505
G1 X136.807 Y105.329 E.01676
G1 X124.671 Y93.193 E.53875
G1 X124.138 Y93.193 E.01676
M73 Q6 S8
G1 X136.807 Y105.862 E.56245
M73 P6 R8
G1 X136.807 Y106.396 E.01676
G1 X123.604 Y93.193 E.58615
G1 X123.07 Y93.193 E.01676
G1 X136.807 Y106.93 E.60985
G1 X136.807 Y107.464 E.01676
G1 X122.536 Y93.193 E.63355
G1 X122.002 Y93.193 E.01676
G1 X136.807 Y107.998 E.65725
G1 X136.807 Y108.532 E.01676
G1 X121.468 Y93.193 E.68095
G1 X120.934 Y93.193 E.01676
M73 P7 R8
M73 Q7 S8
G1 X136.807 Y109.066 E.70466
G1 X136.807 Y109.6 E.01676
G1 X120.4 Y93.193 E.72836
G1 X119.866 Y93.193 E.01676
G1 X136.807 Y110.134 E.75206
G1 X136.807 Y110.667 E.01676
G1 X119.333 Y93.193 E.77576
G1 X118.799 Y93.193 E.01676
M73 Q8 S8
G1 X136.807 Y111.201 E.79946
G1 X136.807 Y111.735 E.01676
M73 P8 R8
G1 X118.265 Y93.193 E.82316
G1 X117.731 Y93.193 E.01676
G1 X136.807 Y112.269 E.84686
G1 X136.783 Y112.779 E.01602
G1 X117.221 Y93.217 E.86843
G1 X116.739 Y93.269 E.01521
M73 Q9 S8
G1 X136.731 Y113.261 E.88751
G1 X136.628 Y113.691 E.0139
M73 P9 R8
G1 X116.309 Y93.372 E.90203
G1 X116.17 Y93.406 E.00449
G1 X115.914 Y93.512 E.00869
G1 X136.488 Y114.086 E.91337
G1 X136.331 Y114.462 E.01281
G1 X115.538 Y93.669 E.92309
G1 X115.207 Y93.872 E.01219
M73 Q10 S8
G1 X136.128 Y114.793 E.92878
M73 P10 R8
G1 X135.913 Y115.112 E.01207
G1 X114.888 Y94.087 E.93338
G1 X114.6 Y94.333 E.01189
G1 X135.667 Y115.4 E.93525
G1 X135.544 Y115.544 E.00594
G1 X135.4 Y115.667 E.00594
G1 X114.333 Y94.6 E.93525
G1 X114.087 Y94.888 E.01189
M73 P11 R8
M73 Q11 S8
G1 X135.112 Y115.913 E.93338
G1 X134.793 Y116.128 E.01207
G1 X113.872 Y95.207 E.92878
G1 X113.669 Y95.538 E.01219
G1 X134.462 Y116.331 E.92309
G1 X134.086 Y116.488 E.01281
G1 X113.512 Y95.914 E.91337
G1 X113.406 Y96.17 E.00868
M73 P12 R8
M73 Q12 S8
G1 X113.372 Y96.309 E.00449
G1 X133.691 Y116.628 E.90203
G1 X133.261 Y116.731 E.0139
G1 X113.269 Y96.739 E.88751
G1 X113.217 Y97.221 E.01521
G1 X132.779 Y116.783 E.86842
G1 X132.269 Y116.807 E.01602
G1 X113.193 Y97.731 E.84686
G1 X113.193 Y98.265 E.01676
M73 P13 R8
M73 Q13 S8
G1 X131.735 Y116.807 E.82316
G1 X131.201 Y116.807 E.01676
G1 X113.193 Y98.799 E.79946
G1 X113.193 Y99.333 E.01676
G1 X130.667 Y116.807 E.77576
G1 X130.134 Y116.807 E.01676
G1 X113.193 Y99.866 E.75205
G1 X113.193 Y100.4 E.01676
M73 P14 R8
M73 Q14 S8
G1 X129.6 Y116.807 E.72835
G1 X129.066 Y116.807 E.01676
G1 X113.193 Y100.934 E.70465
G1 X113.193 Y101.468 E.01676
G1 X128.532 Y116.807 E.68095
G1 X127.998 Y116.807 E.01676
M73 P14 R7
M73 Q14 S7
G1 X113.193 Y102.002 E.65725
G1 X113.193 Y102.536 E.01676
G1 X127.464 Y116.807 E.63355
G1 X126.93 Y116.807 E.01676
M73 P15 R7
M73 Q15 S7
G1 X113.193 Y103.07 E.60985
G1 X113.193 Y103.604 E.01676
G1 X126.396 Y116.807 E.58615
G1 X125.862 Y116.807 E.01676
G1 X113.193 Y104.138 E.56244
G1 X113.193 Y104.672 E.01676
G1 X125.328 Y116.807 E.53874
G1 X124.795 Y116.807 E.01676
G1 X113.193 Y105.205 E.51504
G1 X113.193 Y105.739 E.01676
G1 X124.261 Y116.807 E.49134
G1 X123.727 Y116.807 E.01676
M73 P16 R7
M73 Q16 S7
G1 X113.193 Y106.273 E.46764
G1 X113.193 Y106.807 E.01676
G1 X123.193 Y116.807 E.44394
G1 X122.659 Y116.807 E.01676
G1 X113.193 Y107.341 E.42024
G1 X113.193 Y107.875 E.01676
G1 X122.125 Y116.807 E.39654
G1 X121.591 Y116.807 E.01676
G1 X113.193 Y108.409 E.37283
G1 X113.193 Y108.943 E.01676
G1 X121.057 Y116.807 E.34913
G1 X120.523 Y116.807 E.01676
G1 X113.193 Y109.477 E.32543
G1 X113.193 Y110.01 E.01676
G1 X119.99 Y116.807 E.30173
G1 X119.456 Y116.807 E.01676
M73 P17 R7
M73 Q17 S7
G1 X113.193 Y110.544 E.27803
G1 X113.193 Y111.078 E.01676
G1 X118.922 Y116.807 E.25433
G1 X118.388 Y116.807 E.01676
G1 X113.193 Y111.612 E.23063
G1 X113.193 Y112.146 E.01676
G1 X117.854 Y116.807 E.20693
G1 X117.302 Y116.79 E.01732
G1 X113.21 Y112.698 E.18165
G1 X113.248 Y113.173 E.01498
G1 X113.278 Y113.299 E.00406
G1 X116.701 Y116.722 E.15195
G1 X116.17 Y116.594 E.01715
G1 X115.947 Y116.502 E.00755
G1 X113.217 Y113.772 E.1212
M204 S1000
; stop printing object perimeter_calibration_cube id:0 copy 0
M106 S84.15
;LAYER_CHANGE
;Z:0.4
;HEIGHT:0.2
;BEFORE_LAYER_CHANGE
G92 E0.0
;0.4


G1 Z.4 F720
;AFTER_LAYER_CHANGE
;0.4
M104 S210 ; set temperature
G1 E-.8 F2100
G1 Z.8 F720
G1 X110.204 Y115.02 F10800
G1 Z.4 F720
G1 E.8 F2100
;TYPE:Skirt/Brim
;WIDTH:0.42
G1 F3000
G1 X110.067 Y114.688 E.01127
G1 X109.883 Y113.925 E.0246
G1 X109.755 Y112.722 E.03793
G1 X109.754 Y97.284 E.48406
G1 X109.883 Y96.075 E.03812
G1 X110.067 Y95.312 E.0246
G1 X110.5 Y94.176 E.03812
G1 X111.107 Y93.122 E.03812
G1 X111.87 Y92.176 E.03812
G1 X113.122 Y91.107 E.05162
G1 X113.791 Y90.697 E.0246
G1 X114.901 Y90.2 E.03812
G1 X116.502 Y89.816 E.05162
G1 X117.494 Y89.746 E.03118
G1 X132.716 Y89.754 E.47729
G1 X133.925 Y89.883 E.03812
G1 X135.099 Y90.2 E.03813
G1 X136.209 Y90.697 E.03812
G1 X137.242 Y91.373 E.03871
G1 X138.13 Y92.176 E.03754
G1 X138.639 Y92.772 E.0246
G1 X139.303 Y93.791 E.03812
G1 X139.8 Y94.901 E.03812
G1 X140.117 Y96.075 E.03812
G1 X140.254 Y97.494 E.04469
G1 X140.246 Y112.716 E.47729
G1 X140.117 Y113.925 E.03812
G1 X139.933 Y114.688 E.0246
G1 X139.5 Y115.824 E.03812
G1 X138.893 Y116.878 E.03812
G1 X137.824 Y118.13 E.05162
G1 X137.228 Y118.639 E.0246
G1 X136.209 Y119.303 E.03812
G1 X134.688 Y119.933 E.05162
G1 X133.498 Y120.184 E.03812
G1 X132.716 Y120.246 E.0246
G1 X117.284 Y120.246 E.48386
G1 X116.075 Y120.117 E.03812
G1 X115.312 Y119.933 E.0246
G1 X114.176 Y119.5 E.03812
G1 X113.122 Y118.893 E.03812
G1 X111.87 Y117.824 E.05162
G1 X111.361 Y117.228 E.0246
G1 X110.697 Y116.209 E.03812
G1 X110.227 Y115.075 E.03847
G1 X110.571 Y114.933 F10800
G1 F3000
G1 X110.433 Y114.6 E.0113
G1 X110.25 Y113.837 E.0246
G1 X110.131 Y112.693 E.03607
G1 X110.13 Y97.314 E.48221
G1 X110.25 Y96.163 E.03627
M73 Q18 S7
G1 X110.433 Y95.4 E.0246
G1 X110.849 Y94.32 E.03627
M73 P18 R7
G1 X111.428 Y93.319 E.03627
G1 X112.157 Y92.421 E.03627
G1 X113.319 Y91.428 E.04792
G1 X113.988 Y91.018 E.0246
G1 X115.045 Y90.549 E.03627
G1 X116.531 Y90.192 E.04792
G1 X117.494 Y90.123 E.03025
G1 X132.686 Y90.13 E.47636
G1 X133.837 Y90.25 E.03627
G1 X134.955 Y90.549 E.03627
G1 X136.012 Y91.018 E.03627
G1 X136.997 Y91.66 E.03686
G1 X137.843 Y92.421 E.03568
G1 X138.353 Y93.017 E.0246
G1 X138.982 Y93.988 E.03627
G1 X139.451 Y95.045 E.03627
G1 X139.75 Y96.163 E.03627
G1 X139.877 Y97.494 E.04191
G1 X139.87 Y112.686 E.47636
G1 X139.75 Y113.837 E.03627
G1 X139.567 Y114.6 E.0246
G1 X139.151 Y115.68 E.03627
G1 X138.572 Y116.681 E.03627
G1 X137.579 Y117.843 E.04792
G1 X136.983 Y118.353 E.0246
G1 X136.012 Y118.982 E.03627
G1 X134.6 Y119.567 E.04792
G1 X133.837 Y119.75 E.0246
G1 X132.693 Y119.869 E.03607
G1 X117.314 Y119.87 E.48221
G1 X116.163 Y119.75 E.03627
G1 X115.4 Y119.567 E.0246
G1 X114.32 Y119.151 E.03627
G1 X113.319 Y118.572 E.03627
G1 X112.157 Y117.579 E.04792
G1 X111.647 Y116.983 E.0246
G1 X111.018 Y116.012 E.03627
G1 X110.594 Y114.988 E.03474
; printing object perimeter_calibration_cube id:0 copy 0
;WIPE_START
G1 F8640
G1 X110.433 Y114.6 E-.09707
G1 X110.25 Y113.837 E-.18116
G1 X110.131 Y112.693 E-.26567
G1 X110.131 Y111.757 E-.2161
;WIPE_END
G1 E-.04 F2100
G1 Z.8 F720
G1 X112.977 Y114.012 F10800
G1 Z.4 F720
G1 E.8 F2100
M204 S800
;TYPE:External perimeter
;WIDTH:0.449999
G1 F1500
G1 X112.784 Y113.247 E.02669
G1 X112.725 Y112.491 E.02566
G1 X112.725 Y97.509 E.50713
G1 X112.784 Y96.753 E.02566
G1 X112.959 Y96.025 E.02536
G1 X113.246 Y95.333 E.02536
G1 X113.638 Y94.694 E.02536
G1 X114.124 Y94.124 E.02534
G1 X114.709 Y93.628 E.02599
G1 X115.333 Y93.246 E.02474
G1 X116.025 Y92.959 E.02536
G1 X116.753 Y92.784 E.02536
G1 X117.509 Y92.725 E.02566
G1 X132.51 Y92.726 E.50777
G1 X133.247 Y92.784 E.02502
G1 X133.975 Y92.959 E.02536
G1 X134.667 Y93.246 E.02536
G1 X135.306 Y93.638 E.02536
G1 X135.876 Y94.124 E.02536
G1 X136.362 Y94.694 E.02536
G1 X136.754 Y95.333 E.02536
G1 X137.041 Y96.025 E.02536
G1 X137.216 Y96.753 E.02536
G1 X137.275 Y97.509 E.02566
G1 X137.275 Y112.491 E.50713
G1 X137.216 Y113.247 E.02566
G1 X137.041 Y113.975 E.02536
G1 X136.754 Y114.667 E.02536
G1 X136.362 Y115.306 E.02536
G1 X135.876 Y115.876 E.02536
G1 X135.306 Y116.362 E.02536
G1 X134.668 Y116.754 E.02534
G1 X133.957 Y117.045 E.02599
G1 X133.247 Y117.216 E.02474
G1 X132.491 Y117.275 E.02566
G1 X117.509 Y117.275 E.50713
G1 X116.753 Y117.216 E.02566
M73 Q19 S7
G1 X116.025 Y117.041 E.02536
G1 X115.333 Y116.754 E.02536
G1 X114.694 Y116.362 E.02536
M73 P19 R7
G1 X114.124 Y115.876 E.02536
G1 X113.638 Y115.306 E.02536
G1 X113.246 Y114.668 E.02534
G1 X113 Y114.067 E.02198
M204 S1000
; stop printing object perimeter_calibration_cube id:0 copy 0
M106 S170.85
;LAYER_CHANGE
;Z:0.6
;HEIGHT:0.2
;BEFORE_LAYER_CHANGE
G92 E0.0
;0.6


G1 Z.6 F720
;AFTER_LAYER_CHANGE
;0.6
G1 E-.8 F2100
G1 Z1 F720
